assets/icons/Arrow.svg

<svg fill="none" height="147" viewBox="0 0 110 147" width="110" xmlns="http://www.w3.org/2000/svg" xmlns:xlink="http://www.w3.org/1999/xlink"><filter id="a" color-interpolation-filters="sRGB" filterUnits="userSpaceOnUse" height="147" width="110" x="0" y="0"><feFlood flood-opacity="0" result="BackgroundImageFix"/><feColorMatrix in="SourceAlpha" result="hardAlpha" type="matrix" values="0 0 0 0 0 0 0 0 0 0 0 0 0 0 0 0 0 0 127 0"/><feOffset dy="-4"/><feGaussianBlur stdDeviation="5"/><feColorMatrix type="matrix" values="0 0 0 0 0.207843 0 0 0 0 0.286275 0 0 0 0 0.368627 0 0 0 0.25 0"/><feBlend in2="BackgroundImageFix" mode="normal" result="effect1_dropShadow_420_4117"/><feBlend in="SourceGraphic" in2="effect1_dropShadow_420_4117" mode="normal" result="shape"/></filter><g fill="#00cb71" filter="url(#a)"><path d="m51.2946 80.0416c.4129.604.9653 1.0978 1.6097 1.439.6445.3411 1.3616.5194 2.0896.5194s1.4451-.1783 2.0896-.5194c.6444-.3412 1.1968-.835 1.6097-1.439l40.5032-58.9293c.4688-.6797.7437-1.4758.7949-2.3018.0507-.8261-.1234-1.6504-.5047-2.3835-.3813-.7332-.9548-1.347-1.6582-1.7749-.7033-.4279-1.5097-.6534-2.3313-.6521h-81.0064c-.8197.0034-1.6231.2319-2.3236.6608-.7005.4288-1.2717 1.042-1.6521 1.7734-.3805.7314-.55574 1.5535-.507 2.3777.0487.8243.3195 1.6196.7834 2.3004z"/><path d="m51.2946 139.042c.4129.604.9653 1.097 1.6097 1.439.6445.341 1.3616.519 2.0896.519s1.4451-.178 2.0896-.519c.6444-.342 1.1968-.835 1.6097-1.439l40.5032-58.9297c.4688-.6797.7437-1.4758.7949-2.3018.0507-.8261-.1234-1.6504-.5047-2.3835-.3813-.7332-.9548-1.347-1.6582-1.7749-.7033-.4279-1.5097-.6534-2.3313-.6521h-81.0064c-.8197.0034-1.6231.2319-2.3236.6608-.7005.4288-1.2717 1.042-1.6521 1.7734-.3805.7314-.55574 1.5535-.507 2.3777.0487.8243.3195 1.6196.7834 2.3004z"/></g></svg>

<svg width="110" height="147" viewBox="0 0 110 147" fill="none" xmlns="http://www.w3.org/2000/svg">
<g id="Arrow" filter="url(#filter0_d_420_4117)">
<path id="Vector" d="M51.2946 80.0416C51.7075 80.6456 52.2599 81.1394 52.9043 81.4806C53.5488 81.8217 54.2659 82 54.9939 82C55.7219 82 56.439 81.8217 57.0835 81.4806C57.7279 81.1394 58.2803 80.6456 58.6932 80.0416L99.1964 21.1123C99.6652 20.4326 99.9401 19.6365 99.9913 18.8105C100.042 17.9844 99.8679 17.1601 99.4866 16.427C99.1053 15.6938 98.5318 15.08 97.8284 14.6521C97.1251 14.2242 96.3187 13.9987 95.4971 14H14.4907C13.671 14.0034 12.8676 14.2319 12.1671 14.6608C11.4666 15.0896 10.8954 15.7028 10.515 16.4342C10.1345 17.1656 9.95926 17.9877 10.008 18.8119C10.0567 19.6362 10.3275 20.4315 10.7914 21.1123L51.2946 80.0416Z" fill="#00CB71"/>
<path id="Vector_2" d="M51.2946 139.042C51.7075 139.646 52.2599 140.139 52.9043 140.481C53.5488 140.822 54.2659 141 54.9939 141C55.7219 141 56.439 140.822 57.0835 140.481C57.7279 140.139 58.2803 139.646 58.6932 139.042L99.1964 80.1123C99.6652 79.4326 99.9401 78.6365 99.9913 77.8105C100.042 76.9844 99.8679 76.1601 99.4866 75.427C99.1053 74.6938 98.5318 74.08 97.8284 73.6521C97.1251 73.2242 96.3187 72.9987 95.4971 73H14.4907C13.671 73.0034 12.8676 73.2319 12.1671 73.6608C11.4666 74.0896 10.8954 74.7028 10.515 75.4342C10.1345 76.1656 9.95926 76.9877 10.008 77.8119C10.0567 78.6362 10.3275 79.4315 10.7914 80.1123L51.2946 139.042Z" fill="#00CB71"/>
</g>
<defs>
<filter id="filter0_d_420_4117" x="0" y="0" width="110" height="147" filterUnits="userSpaceOnUse" color-interpolation-filters="sRGB">
<feFlood flood-opacity="0" result="BackgroundImageFix"/>
<feColorMatrix in="SourceAlpha" type="matrix" values="0 0 0 0 0 0 0 0 0 0 0 0 0 0 0 0 0 0 127 0" result="hardAlpha"/>
<feOffset dy="-4"/>
<feGaussianBlur stdDeviation="5"/>
<feColorMatrix type="matrix" values="0 0 0 0 0.207843 0 0 0 0 0.286275 0 0 0 0 0.368627 0 0 0 0.25 0"/>
<feBlend mode="normal" in2="BackgroundImageFix" result="effect1_dropShadow_420_4117"/>
<feBlend mode="normal" in="SourceGraphic" in2="effect1_dropShadow_420_4117" result="shape"/>
</filter>
</defs>
</svg>
